assets/Icons/social/twitter_icon.svg

<svg width="50" height="50" viewBox="0 0 50 50" fill="none" xmlns="http://www.w3.org/2000/svg">
<circle cx="25" cy="25" r="24" stroke="black" stroke-width="2"/>
<path d="M37.1213 15.1624C36.0661 15.9039 34.8978 16.471 33.6613 16.8419C32.9976 16.0817 32.1156 15.543 31.1346 15.2984C30.1535 15.0539 29.1208 15.1154 28.176 15.4747C27.2312 15.8339 26.4199 16.4735 25.8519 17.307C25.2839 18.1405 24.9866 19.1277 25.0001 20.135V21.2327C23.0636 21.2828 21.1448 20.8549 19.4145 19.9873C17.6841 19.1197 16.1961 17.8393 15.0828 16.2601C15.0828 16.2601 10.675 26.1395 20.5924 30.5304C18.323 32.0649 15.6196 32.8344 12.8789 32.7258C22.7963 38.2143 34.9175 32.7258 34.9175 20.1021C34.9165 19.7963 34.8869 19.4913 34.8293 19.191C35.954 18.0862 36.7476 16.6912 37.1213 15.1624V15.1624Z" stroke="black" stroke-width="2" stroke-linecap="round" stroke-linejoin="round"/>
</svg>

<?xml version="1.0" encoding="UTF-8"?>
<svg id="Layer_1" data-name="Layer 1" xmlns="http://www.w3.org/2000/svg" viewBox="0 0 50 50">
  <defs>
    <style>
      .cls-1 {
        stroke-linecap: round;
        stroke-linejoin: round;
      }

      .cls-1, .cls-2 {
        fill: none;
        stroke: #fff;
        stroke-width: 2px;
      }
    </style>
  </defs>
  <circle class="cls-2" cx="25" cy="25" r="24"/>
  <path class="cls-1" d="m37.121,15.162c-1.055.741-2.223,1.309-3.46,1.679-.664-.76-1.546-1.299-2.527-1.543-.981-.245-2.014-.183-2.959.176-.945.359-1.756.999-2.324,1.832s-.865,1.821-.852,2.828v1.098c-1.936.05-3.855-.378-5.586-1.245-1.73-.868-3.218-2.148-4.332-3.727,0,0-4.408,9.879,5.51,14.27-2.269,1.535-4.973,2.304-7.714,2.195,9.917,5.488,22.039,0,22.039-12.624,0-.306-.031-.611-.088-.911,1.125-1.105,1.918-2.5,2.292-4.029h0Z"/>
</svg>
